polaris-icons/icons/newicons/PaintBrushMajor.svg

<svg width="20" height="20" viewBox="0 0 20 20" fill="none" xmlns="http://www.w3.org/2000/svg">
<path fill-rule="evenodd" clip-rule="evenodd" d="M12.1768 4.23753C12.0791 4.1399 11.9209 4.1399 11.8232 4.23753L8.48744 7.57332C8.3898 7.67095 8.3898 7.82924 8.48744 7.92687L12.0732 11.5127C12.1706 11.6101 12.3284 11.6103 12.4261 11.5134L12.4268 11.5127L15.7626 8.17687C15.8602 8.07924 15.8602 7.92095 15.7626 7.82332L14.0001 6.06082L13.0303 7.03057C12.7374 7.32347 12.2625 7.32347 11.9696 7.03057C11.6767 6.73768 11.6767 6.26281 11.9696 5.96991L12.9394 5.00016L12.1768 4.23753ZM10.7626 3.17687L5.67677 8.26266C4.99336 8.94607 4.99336 10.0541 5.67677 10.7375L5.93934 11.0001L3.46967 13.4698C2.62449 14.3149 2.62449 15.6852 3.46967 16.5304C4.31485 17.3756 5.68515 17.3756 6.53033 16.5304L9 14.0608L9.26256 14.3233C9.94598 15.0067 11.054 15.0067 11.7374 14.3233L16.8232 9.23753C17.5066 8.55411 17.5066 7.44607 16.8232 6.76266L13.2374 3.17687C12.554 2.49345 11.446 2.49345 10.7626 3.17687ZM6.73744 9.32332L7.26253 8.79822C7.31201 8.86421 7.36676 8.92751 7.42677 8.98753L11.0126 12.5733C11.0726 12.6333 11.1359 12.6881 11.2019 12.7376L10.6768 13.2627C10.5791 13.3603 10.4209 13.3603 10.3232 13.2627L6.73743 9.67687C6.6398 9.57924 6.6398 9.42095 6.73744 9.32332ZM7 12.0608L4.53033 14.5304C4.27094 14.7898 4.27094 15.2104 4.53033 15.4698C4.78972 15.7292 5.21028 15.7292 5.46967 15.4698L7.93934 13.0001L7 12.0608Z" fill="black"/>
</svg>

<svg viewBox="0 0 20 20" fill="none" xmlns="http://www.w3.org/2000/svg"><path fill-rule="evenodd" clip-rule="evenodd" d="M12.177 4.238a.25.25 0 0 0-.354 0l-3.336 3.335a.25.25 0 0 0 0 .354l3.586 3.586a.25.25 0 0 0 .353 0l3.337-3.336a.25.25 0 0 0 0-.354l-1.763-1.762-.97.97a.75.75 0 0 1-1.06-1.061l.97-.97-.763-.762Zm-1.414-1.061-5.086 5.086a1.75 1.75 0 0 0 0 2.475l.262.262-2.47 2.47a2.164 2.164 0 1 0 3.061 3.06l2.47-2.47.263.263a1.75 1.75 0 0 0 2.474 0l5.086-5.085a1.75 1.75 0 0 0 0-2.475l-3.586-3.586a1.75 1.75 0 0 0-2.474 0Zm-4.026 6.146.526-.525c.049.066.104.13.164.19l3.586 3.585c.06.06.123.115.189.165l-.525.525a.25.25 0 0 1-.354 0l-3.586-3.586a.25.25 0 0 1 0-.354Zm.263 2.738-2.47 2.47a.664.664 0 0 0 .94.939l2.47-2.47-.94-.94Z" fill="#5C5F62"/></svg>
